public/fialta-logo.svg

<?xml version="1.0" encoding="UTF-8" standalone="no"?><!DOCTYPE svg PUBLIC "-//W3C//DTD SVG 1.1//EN" "http://www.w3.org/Graphics/SVG/1.1/DTD/svg11.dtd"><svg width="100%" height="100%" viewBox="0 0 555 397" version="1.1" xmlns="http://www.w3.org/2000/svg" xmlns:xlink="http://www.w3.org/1999/xlink" xml:space="preserve" xmlns:serif="http://www.serif.com/" style="fill-rule:evenodd;clip-rule:evenodd;stroke-linecap:round;stroke-linejoin:round;stroke-miterlimit:1.5;"><g><g><path d="M277.114,118.191l76.67,138.965l-76.67,138.964l-76.67,-138.964l76.67,-138.965Z" style="fill:url(#_Linear1);stroke:#fff;stroke-width:1.01px;"/></g><g><path d="M277.114,185.034l39.191,72.122l-39.191,72.121l-39.19,-72.121l39.19,-72.122Z" style="fill:url(#_Linear2);stroke:#fff;stroke-width:0.52px;"/></g><g><path d="M200.443,0.538l49.974,48.309l-49.974,48.306l-49.972,-48.306l49.972,-48.309Z" style="fill:url(#_Linear3);stroke:#fff;stroke-width:1.01px;"/></g><g><path d="M100.498,118.19l49.974,48.309l-49.974,48.306l-49.971,-48.306l49.971,-48.309Z" style="fill:url(#_Linear4);stroke:#fff;stroke-width:1.01px;"/></g><g><path d="M50.525,257.153l49.974,48.309l-49.974,48.306l-49.971,-48.306l49.971,-48.309Z" style="fill:url(#_Linear5);stroke:#fff;stroke-width:1.01px;"/></g><g><path d="M353.783,0.538l49.974,48.309l-49.974,48.306l-49.972,-48.306l49.972,-48.309Z" style="fill:url(#_Linear6);stroke:#fff;stroke-width:1.01px;"/></g><g><path d="M453.728,118.19l49.974,48.309l-49.974,48.306l-49.972,-48.306l49.972,-48.309Z" style="fill:url(#_Linear7);stroke:#fff;stroke-width:1.01px;"/></g><g><path d="M503.7,257.153l49.974,48.309l-49.974,48.306l-49.972,-48.306l49.972,-48.309Z" style="fill:url(#_Linear8);stroke:#fff;stroke-width:1.01px;"/></g></g><defs><linearGradient id="_Linear1" x1="0" y1="0" x2="1" y2="0" gradientUnits="userSpaceOnUse" gradientTransform="matrix(153.34,0,0,103.824,200.444,257.156)"><stop offset="0" style="stop-color:#100eff;stop-opacity:1"/><stop offset="1" style="stop-color:#22aeff;stop-opacity:1"/></linearGradient><linearGradient id="_Linear2" x1="0" y1="0" x2="1" y2="0" gradientUnits="userSpaceOnUse" gradientTransform="matrix(78.3807,0,0,53.8835,237.924,257.156)"><stop offset="0" style="stop-color:#0785ff;stop-opacity:1"/><stop offset="0.5" style="stop-color:#98b2ff;stop-opacity:1"/><stop offset="1" style="stop-color:#c8c1ff;stop-opacity:1"/></linearGradient><linearGradient id="_Linear3" x1="0" y1="0" x2="1" y2="0" gradientUnits="userSpaceOnUse" gradientTransform="matrix(99.9456,0,0,96.6143,150.471,48.8456)"><stop offset="0" style="stop-color:#2262ff;stop-opacity:1"/><stop offset="1" style="stop-color:#91d4ff;stop-opacity:1"/></linearGradient><linearGradient id="_Linear4" x1="0" y1="0" x2="1" y2="0" gradientUnits="userSpaceOnUse" gradientTransform="matrix(99.9449,0,0,99.9449,50.5267,166.499)"><stop offset="0" style="stop-color:#2262ff;stop-opacity:1"/><stop offset="1" style="stop-color:#91d4ff;stop-opacity:1"/></linearGradient><linearGradient id="_Linear5" x1="0" y1="0" x2="1" y2="0" gradientUnits="userSpaceOnUse" gradientTransform="matrix(99.9449,0,0,99.9449,0.553868,305.462)"><stop offset="0" style="stop-color:#2262ff;stop-opacity:1"/><stop offset="1" style="stop-color:#91d4ff;stop-opacity:1"/></linearGradient><linearGradient id="_Linear6" x1="0" y1="0" x2="1" y2="0" gradientUnits="userSpaceOnUse" gradientTransform="matrix(99.9449,0,0,99.9449,303.811,48.8469)"><stop offset="0" style="stop-color:#91d4ff;stop-opacity:1"/><stop offset="1" style="stop-color:#2262ff;stop-opacity:1"/></linearGradient><linearGradient id="_Linear7" x1="0" y1="0" x2="1" y2="0" gradientUnits="userSpaceOnUse" gradientTransform="matrix(99.9449,0,0,99.9449,403.756,166.499)"><stop offset="0" style="stop-color:#91d4ff;stop-opacity:1"/><stop offset="1" style="stop-color:#2262ff;stop-opacity:1"/></linearGradient><linearGradient id="_Linear8" x1="0" y1="0" x2="1" y2="0" gradientUnits="userSpaceOnUse" gradientTransform="matrix(99.9449,0,0,99.9449,453.728,305.462)"><stop offset="0" style="stop-color:#91d4ff;stop-opacity:1"/><stop offset="1" style="stop-color:#2262ff;stop-opacity:1"/></linearGradient></defs></svg>

<?xml version="1.0" encoding="UTF-8" standalone="no"?>
<!DOCTYPE svg PUBLIC "-//W3C//DTD SVG 1.1//EN" "http://www.w3.org/Graphics/SVG/1.1/DTD/svg11.dtd">
<svg width="100%" height="100%" viewBox="0 0 555 397" version="1.1" xmlns="http://www.w3.org/2000/svg" xmlns:xlink="http://www.w3.org/1999/xlink" xml:space="preserve" xmlns:serif="http://www.serif.com/" style="fill-rule:evenodd;clip-rule:evenodd;stroke-linecap:round;stroke-linejoin:round;stroke-miterlimit:1.5;">
    <g>
        <g transform="matrix(1,0,0,1,0.386,-0.001)">
            <path d="M277.114,118.191L353.784,257.156L277.114,396.12L200.444,257.156L277.114,118.191Z" style="fill:url(#_Linear1);stroke:white;stroke-width:1.01px;"/>
        </g>
        <g>
            <path d="M200.443,0.538L250.417,48.847L200.443,97.153L150.471,48.847L200.443,0.538Z" style="fill:url(#_Linear2);stroke:white;stroke-width:1.01px;"/>
        </g>
        <g>
            <path d="M100.498,118.19L150.472,166.499L100.498,214.805L50.527,166.499L100.498,118.19Z" style="fill:url(#_Linear3);stroke:white;stroke-width:1.01px;"/>
        </g>
        <g>
            <path d="M353.783,0.538L403.757,48.847L353.783,97.153L303.811,48.847L353.783,0.538Z" style="fill:url(#_Linear4);stroke:white;stroke-width:1.01px;"/>
        </g>
        <g transform="matrix(1,0,0,1,0.001,0)">
            <path d="M453.728,118.19L503.702,166.499L453.728,214.805L403.756,166.499L453.728,118.19Z" style="fill:url(#_Linear5);stroke:white;stroke-width:1.01px;"/>
        </g>
    </g>
    <defs>
        <linearGradient id="_Linear1" x1="0" y1="0" x2="1" y2="0" gradientUnits="userSpaceOnUse" gradientTransform="matrix(153.34,0,0,153.34,200.444,257.156)"><stop offset="0" style="stop-color:rgb(34,98,255);stop-opacity:1"/><stop offset="1" style="stop-color:white;stop-opacity:1"/></linearGradient>
        <linearGradient id="_Linear2" x1="0" y1="0" x2="1" y2="0" gradientUnits="userSpaceOnUse" gradientTransform="matrix(99.9456,0,0,99.9456,150.471,48.8456)"><stop offset="0" style="stop-color:rgb(34,98,255);stop-opacity:1"/><stop offset="1" style="stop-color:white;stop-opacity:1"/></linearGradient>
        <linearGradient id="_Linear3" x1="0" y1="0" x2="1" y2="0" gradientUnits="userSpaceOnUse" gradientTransform="matrix(99.9449,0,0,99.9449,50.5267,166.499)"><stop offset="0" style="stop-color:rgb(34,98,255);stop-opacity:1"/><stop offset="1" style="stop-color:white;stop-opacity:1"/></linearGradient>
        <linearGradient id="_Linear4" x1="0" y1="0" x2="1" y2="0" gradientUnits="userSpaceOnUse" gradientTransform="matrix(99.9449,0,0,99.9449,303.811,48.8469)"><stop offset="0" style="stop-color:rgb(34,98,255);stop-opacity:1"/><stop offset="1" style="stop-color:white;stop-opacity:1"/></linearGradient>
        <linearGradient id="_Linear5" x1="0" y1="0" x2="1" y2="0" gradientUnits="userSpaceOnUse" gradientTransform="matrix(99.9449,0,0,99.9449,403.756,166.499)"><stop offset="0" style="stop-color:rgb(34,98,255);stop-opacity:1"/><stop offset="1" style="stop-color:white;stop-opacity:1"/></linearGradient>
    </defs>
</svg>
